X: 1
T: Missa Ave Maria / Kyrie
N: Derived from Fva1001a-Missa_Ave_Maria-Kyrie.krn
C: Antoine de F\'evin
%%abc-version 2.0
%%abcx-abcm2ps-target-version 5.9.1 (29 Sep 2008)
%%abc-creator hum2abc beta
%%abcx-conversion-date 2019/02/16 20:34:23
%%abc-edited-by Jesse Rodin
%%abc-edited-by Richard Freedman, CRIM
%%abcx-initial-encoding-date 2016/03/29/
%%humdrum-veritas 4115776862
%%humdrum-veritas-data 2061600987
%%linebreak <none>
%%barnumbers 0
L: 1/4
M: 2/1
Q: 1/2=120
%%staves [1 2 3 4]
V: 1 clef=treble
V: 2 clef=treble-8
V: 3 clef=treble-8
V: 4 clef=bass
K: C
[V:1] z8 | 
[V:2] G4c4- | 
[V:3] z8 | 
[V:4] z8 | 
[V:1] z8 | 
[V:2] c4c4 | 
[V:3] z8 | 
[V:4] z8 | 
[V:1] z4G4 | 
[V:2] d4e4- | 
[V:3] z8 | 
[V:4] z8 | 
[V:1] c8 | 
[V:2] e2dcf4 | 
[V:3] z8 | 
[V:4] z8 | 
[V:1] c4d4 | 
[V:2] e2f4ed | 
[V:3] z8 | 
[V:4] z8 | 
[V:1] e6dc | 
[V:2] c4g4 | 
[V:3] z8 | 
[V:4] z8 | 
[V:1] f4e2f2- | 
[V:2] a4g2a2- | 
[V:3] z8 | 
[V:4] z8 | 
[V:1] f2edc2d2- | 
[V:2] a2gfedf2- | 
[V:3] z8 | 
[V:4] z8 | 
[V:1] dcc4B2 | 
[V:2] fedcd4 | 
[V:3] z4G4 | 
[V:4] z8 | 
[V:1] c8 | 
[V:2] c8 | 
[V:3] c8 | 
[V:4] C,4F,4- | 
[V:1] z8 | 
[V:2] z8 | 
[V:3] c4d4 | 
[V:4] F,4F,4 | 
[V:1] z8 | 
[V:2] G4c4- | 
[V:3] e4c3B | 
[V:4] G,4A,3G, | 
[V:1] z4z4 | 
[V:2] c4c4 | 
[V:3] AGA3Gc2- | 
[V:4] F,E,F,4E,2 | 
[V:1] z4G4 | 
[V:2] d4e4 | 
[V:3] c2B2c4 | 
[V:4] D,4C,4 | 
[V:1] c8 | 
[V:2] c3BAGA2- | 
[V:3] z8 | 
[V:4] A,3G,F,E,F,2- | 
[V:1] c4d4 | 
[V:2] AGc4B2 | 
[V:3] z8 | 
[V:4] F,2E,2D,4 | 
[V:1] e4c3B | 
[V:2] c8 | 
[V:3] G4c4- | 
[V:4] C,8 | 
[V:1] AGA3Gc2- | 
[V:2] z8 | 
[V:3] c4c4 | 
[V:4] F,4A,4 | 
[V:1] c2B2c4- | 
[V:2] z8 | 
[V:3] d4e4 | 
[V:4] G,4C3B, | 
[V:1] c4z4 | 
[V:2] z8 | 
[V:3] c3de2f2- | 
[V:4] A,G,A,2G,2A,2- | 
[V:1] z8 | 
[V:2] z8 | 
[V:3] f2e4d2 | 
[V:4] A,G,E,2F,4 | 
[V:1] z8 | 
[V:2] z2g4fe | 
[V:3] e8 | 
[V:4] E,8 | 
[V:1] z8 | 
[V:2] d2e4dc | 
[V:3] z8 | 
[V:4] G,8 | 
[V:1] z8 | 
[V:2] B8 | 
[V:3] z2e4dc | 
[V:4] G,4E,3F, | 
[V:1] z4z4 | 
[V:2] z8 | 
[V:3] B2c4BA | 
[V:4] G,2A,4G,F, | 
[V:1] z8 | 
[V:2] z8 | 
[V:3] GABcd2e2- | 
[V:4] E,2G,3F,E,D, | 
[V:1] z8 | 
[V:2] z8 | 
[V:3] edc4B2 | 
[V:4] C,2E,2D,4 | 
[V:1] z4G4 | 
[V:2] G4c3d | 
[V:3] c8 | 
[V:4] C,8- | 
[V:1] c8 | 
[V:2] efg2c2g2 | 
[V:3] z4G4 | 
[V:4] C,8 | 
[V:1] c4d4 | 
[V:2] e2f2d4 | 
[V:3] A4B4 | 
[V:4] z4G,4 | 
[V:1] e4c4 | 
[V:2] c8 | 
[V:3] c6B2 | 
[V:4] C3B,A,2G,2 | 
[V:1] f6ed | 
[V:2] z4d4 | 
[V:3] A3GA2B2 | 
[V:4] F,2E,2D,2B,,2 | 
[V:1] e3de2d2- | 
[V:2] g8 | 
[V:3] G2c4B2 | 
[V:4] C,4G,4 | 
[V:1] dcc4B2 | 
[V:2] e2f2g4 | 
[V:3] c4d4 | 
[V:4] A,4G,4 | 
[V:1] c8- | 
[V:2] e4c4 | 
[V:3] c8- | 
[V:4] C,8- | 
[V:1] c8 ||  
[V:2] g8 ||  
[V:3] c8 ||  
[V:4] C,8 ||  
[V:1]  [K:C] [K:clef=treble][M:2/1]z4z4 | 
[V:2]  [K:C] [K:clef=treble-8][M:2/1]c3de2f2- | 
[V:3]  [K:C] [K:clef=treble-8][M:2/1]z8 | 
[V:4]  [K:C] [K:clef=bass][M:2/1]z8 | 
[V:1] c6B2 | 
[V:2] f2edefg2- | 
[V:3] z8 | 
[V:4] z8 | 
[V:1] A4G3A/G/ | 
[V:2] g2^f2g2fe | 
[V:3] z8 | 
[V:4] z8 | 
[V:1] ABc4B2 | 
[V:2] fedcd4 | 
[V:3] z8 | 
[V:4] z8 | 
[V:1] c8 | 
[V:2] c8 | 
[V:3] z8 | 
[V:4] C,3D,E,2F,2- | 
[V:1] z8 | 
[V:2] z8 | 
[V:3] c6B2 | 
[V:4] F,2E,D,E,F,G,2- | 
[V:1] z8 | 
[V:2] z8 | 
[V:3] A4G2AG | 
[V:4] G,2^F,2G,2=F,E, | 
[V:1] z8 | 
[V:2] z8 | 
[V:3] ABc4B2 | 
[V:4] F,E,D,C,D,4 | 
[V:1] G3AB2c2- | 
[V:2] z2g3fed | 
[V:3] c4z4 | 
[V:4] C,4z4 | 
[V:1] c2BAB3c | 
[V:2] e2c2d2G2 | 
[V:3] z8 | 
[V:4] z4G,3A, | 
[V:1] d2e4dc | 
[V:2] g4e2f2 | 
[V:3] z8 | 
[V:4] B,2C4B,A, | 
[V:1] d3cBAc2 | 
[V:2] d2f4e2 | 
[V:3] z8 | 
[V:4] B,CD4C2 | 
[V:1] B2A3GG2- | 
[V:2] f3eded2- | 
[V:3] z8 | 
[V:4] D2CB,CB,A,G, | 
[V:1] G2^F2G4- | 
[V:2] d2c2d4 | 
[V:3] z4G3A | 
[V:4] A,4z2G,2- | 
[V:1] G4z4 | 
[V:2] z8 | 
[V:3] B2c4BA | 
[V:4] G,F,E,D,E,2C,2 | 
[V:1] G3AB2c2- | 
[V:2] z2g3fed | 
[V:3] B4z4 | 
[V:4] G,4z4 | 
[V:1] c2BAB3c | 
[V:2] e2c2d2G2 | 
[V:3] z4G3A | 
[V:4] z8 | 
[V:1] d2e4dc | 
[V:2] g4e2f2 | 
[V:3] B2c4BA | 
[V:4] z8 | 
[V:1] d2e3dB2 | 
[V:2] d2cdefg2- | 
[V:3] B2c3BAG | 
[V:4] z8 | 
[V:1] c3dB2B2 | 
[V:2] g2^f2g4 | 
[V:3] A4G4- | 
[V:4] z4z2G,2- | 
[V:1] B4z4 | 
[V:2] z2g3fed | 
[V:3] G8 | 
[V:4] G,F,E,D,E,2C,2 | 
[V:1] z8 | 
[V:2] e2d4c2- | 
[V:3] z8 | 
[V:4] G,4E,2F,2 | 
[V:1] z8 | 
[V:2] c2B2c4 | 
[V:3] z4z2g2- | 
[V:4] D,4C,4- | 
[V:1] z2g3fed | 
[V:2] g3fede2 | 
[V:3] gfede2dc | 
[V:4] C,8 | 
[V:1] e2d3cc2- | 
[V:2] c3Bc4 | 
[V:3] g4e2f2 | 
[V:4] z2G,2A,2F,2 | 
[V:1] c2B2c3B | 
[V:2] g4e4 | 
[V:3] d4c4- | 
[V:4] G,4A,3G, | 
[V:1] AGA4GF | 
[V:2] f8 | 
[V:3] c4A3B | 
[V:4] F,E,F,4E,D, | 
[V:1] E8 ||  
[V:2] g8 ||  
[V:3] c8 ||  
[V:4] C,8 ||  
[V:1]  [K:C] [K:clef=treble][M:2/1]z8 | 
[V:2]  [K:C] [K:clef=treble-8][M:2/1]c8 | 
[V:3]  [K:C] [K:clef=treble-8][M:2/1]z8 | 
[V:4]  [K:C] [K:clef=bass][M:2/1]z8 | 
[V:1] z8 | 
[V:2] c4d4 | 
[V:3] z8 | 
[V:4] z8 | 
[V:1] z8 | 
[V:2] e4c2e2- | 
[V:3] z8 | 
[V:4] C,8 | 
[V:1] z8 | 
[V:2] edg4^f2 | 
[V:3] z8 | 
[V:4] C,4D,4 | 
[V:1] G8 | 
[V:2] g8 | 
[V:3] z8 | 
[V:4] E,4C,2E,2- | 
[V:1] G4A4 | 
[V:2] z8 | 
[V:3] z8 | 
[V:4] E,D,G,4^F,2 | 
[V:1] B4G2B2- | 
[V:2] z4g4 | 
[V:3] G8 | 
[V:4] G,8 | 
[V:1] BAd4^c2 | 
[V:2] g4e4 | 
[V:3] G4A4 | 
[V:4] z8 | 
[V:1] d8 | 
[V:2] d2g4fe | 
[V:3] B4G2B2- | 
[V:4] z4G,4 | 
[V:1] z8 | 
[V:2] dcBAG4 | 
[V:3] BAd4^c2 | 
[V:4] G,4E,4 | 
[V:1] z8 | 
[V:2] z8 | 
[V:3] d6cB | 
[V:4] D,3E,F,G,A,B, | 
[V:1] z8 | 
[V:2] z8 | 
[V:3] cBAGA4 | 
[V:4] A,G,G,4^F,2 | 
[V:1] z2G2GABc | 
[V:2] z4g4 | 
[V:3] G8 | 
[V:4] G,8 | 
[V:1] ded4^c2 | 
[V:2] g4e4 | 
[V:3] z8 | 
[V:4] z8 | 
[V:1] d6cB | 
[V:2] d3efgab | 
[V:3] z8 | 
[V:4] z8 | 
[V:1] cBAGA4 | 
[V:2] agg4^f2 | 
[V:3] z8 | 
[V:4] z8 | 
[V:1] z2G4A2- | 
[V:2] g6fe | 
[V:3] z8 | 
[V:4] C8 | 
[V:1] AGc4B2 | 
[V:2] fedcd4 | 
[V:3] z8 | 
[V:4] A,4G,4 | 
[V:1] c8 | 
[V:2] c8 | 
[V:3] c8 | 
[V:4] z2C3B,A,2- | 
[V:1] z8 | 
[V:2] z8 | 
[V:3] A4G4 | 
[V:4] A,2G,F,E,D,G,2- | 
[V:1] z8 | 
[V:2] z8 | 
[V:3] c4d4 | 
[V:4] G,E,F,4E,D, | 
[V:1] z8 | 
[V:2] z8 | 
[V:3] e4z2e2- | 
[V:4] C,D,E,F,G,3F, | 
[V:1] z8 | 
[V:2] z8 | 
[V:3] edc4B2 | 
[V:4] E,2F,2D,4 | 
[V:1] z8 | 
[V:2] z4c4- | 
[V:3] c8 | 
[V:4] C,8- | 
[V:1] z8 | 
[V:2] c4A4 | 
[V:3] z4c4- | 
[V:4] C,8- | 
[V:1] z8 | 
[V:2] G4c4- | 
[V:3] c4A4 | 
[V:4] C,8- | 
[V:1] c8 | 
[V:2] c2d2e2g2- | 
[V:3] G4c4 | 
[V:4] C,8 | 
[V:1] A4G4 | 
[V:2] g2^f2g3f | 
[V:3] d4e3d | 
[V:4] z8 | 
[V:1] c4d4 | 
[V:2] g2a4gf | 
[V:3] e2f4ed | 
[V:4] z8 | 
[V:1] e4z2e2- | 
[V:2] e4c2d2 | 
[V:3] c2g3fed | 
[V:4] C8 | 
[V:1] edc4B2 | 
[V:2] e2f2g4 | 
[V:3] c4d4 | 
[V:4] A,4G,4 | 
[V:1] c8 |]  
[V:2] g8 |]  
[V:3] c8 |]  
[V:4] C,8 |]  



